DuckDuckGo/NewTabPage.xcassets/Favorites-Add-128.imageset/Favorites-Add-128.svg

<svg width="128" height="96" viewBox="0 0 128 96" fill="none" xmlns="http://www.w3.org/2000/svg">
<path opacity="0.2" d="M105.629 38.2L107.171 37.8C107.457 37.7429 107.743 37.4571 107.8 37.1714L108.2 35.6286C108.314 35.2286 108.657 35 109 35C109.4 35 109.743 35.2857 109.8 35.6286L110.2 37.1714C110.257 37.4571 110.543 37.7429 110.829 37.8L112.371 38.2C112.771 38.3143 113 38.6571 113 39C113 39.4 112.714 39.7429 112.371 39.8L110.829 40.2C110.543 40.2571 110.257 40.5429 110.2 40.8286L109.8 42.3714C109.686 42.7714 109.343 43 109 43C108.6 43 108.257 42.7143 108.2 42.3714L107.8 40.8286C107.743 40.5429 107.457 40.2571 107.171 40.2L105.629 39.8C105.229 39.6857 105 39.3429 105 39C105 38.6 105.286 38.2571 105.629 38.2Z" fill="#888888"/>
<path opacity="0.2" d="M15.9428 31.8L18.2571 31.2C18.6857 31.1143 19.1143 30.6857 19.2 30.2571L19.8 27.9429C19.9714 27.3429 20.4857 27 21 27C21.6 27 22.1143 27.4286 22.2 27.9429L22.8 30.2571C22.8857 30.6857 23.3143 31.1143 23.7429 31.2L26.0572 31.8C26.6572 31.9714 27 32.4857 27 33C27 33.6 26.5714 34.1143 26.0572 34.2L23.7429 34.8C23.3143 34.8857 22.8857 35.3143 22.8 35.7429L22.2 38.0571C22.0286 38.6571 21.5143 39 21 39C20.4 39 19.8857 38.5714 19.8 38.0571L19.2 35.7429C19.1143 35.3143 18.6857 34.8857 18.2571 34.8L15.9428 34.2C15.3428 34.0286 15 33.5143 15 33C15 32.4 15.4286 31.8857 15.9428 31.8Z" fill="#888888"/>
<path opacity="0.2" d="M0.628557 53.2L2.17142 52.8C2.45714 52.7429 2.74287 52.4571 2.80001 52.1714L3.19999 50.6286C3.31427 50.2286 3.65714 50 4 50C4.4 50 4.74287 50.2857 4.80001 50.6286L5.19999 52.1714C5.25713 52.4571 5.54286 52.7429 5.82858 52.8L7.37144 53.2C7.77144 53.3143 8 53.6571 8 54C8 54.4 7.7143 54.7429 7.37144 54.8L5.82858 55.2C5.54286 55.2571 5.25713 55.5429 5.19999 55.8286L4.80001 57.3714C4.68573 57.7714 4.34286 58 4 58C3.6 58 3.25713 57.7143 3.19999 57.3714L2.80001 55.8286C2.74287 55.5429 2.45714 55.2571 2.17142 55.2L0.628557 54.8C0.228557 54.6857 0 54.3429 0 54C0 53.6 0.2857 53.2571 0.628557 53.2Z" fill="#888888"/>
<path opacity="0.2" d="M126.5 52C125.675 52 125 51.325 125 50.5C125 49.675 125.675 49 126.5 49C127.325 49 128 49.675 128 50.5C128 51.325 127.325 52 126.5 52Z" fill="#888888"/>
<path opacity="0.2" d="M23 70C21.9 70 21 69.1 21 68C21 66.9 21.9 66 23 66C24.1 66 25 66.9 25 68C25 69.1 24.1 70 23 70Z" fill="#888888"/>
<path d="M61.0695 22.0664C61.3235 21.5478 61.6388 21.0949 62 20.7075V18.9999H65.6871C67.7517 18.8852 69.8728 19.9073 70.9303 22.0664L75.852 32.1152C76.6484 33.7413 78.1954 34.8701 79.987 35.1324L91.0609 36.7539C95.5509 37.4113 97.35 42.9228 94.1126 46.1026L91.169 48.9938C89.86 50.2795 88.0977 50.9502 86.2641 51.0163C85.8421 51.0314 85.4207 51.0569 85 51.0986C76.2283 51.9695 69.1239 58.5078 67.4001 66.9999C66.6376 70.7564 66.52 68.9377 63.4299 70.5748L60.7397 71.9999L53.6038 75.7801C52.6435 76.2889 51.6436 76.4819 50.6879 76.4199H47V74.6568C45.909 73.4869 45.3104 71.8365 45.6217 70.0076L47.5186 58.8633C47.8201 57.0917 47.2355 55.2847 45.9534 54.0254L37.8872 46.1026C34.6498 42.9228 36.4489 37.4113 40.9389 36.7539L52.0128 35.1324C53.8044 34.8701 55.3514 33.7413 56.1478 32.1152L61.0695 22.0664Z" fill="#C18010"/>
<path d="M66.9303 22.0664C64.9221 17.9661 59.0777 17.9662 57.0695 22.0664L52.1478 32.1151C51.3514 33.7413 49.8044 34.8701 48.0128 35.1324L36.9389 36.7539C32.4489 37.4113 30.6498 42.9228 33.8872 46.1026L41.9534 54.0254C43.2355 55.2847 43.8201 57.0917 43.5186 58.8633L41.6217 70.0076C40.8573 74.4981 45.5787 77.9125 49.6038 75.7801L59.4299 70.5747C60.7901 69.8542 62.3776 69.7433 63.8077 70.2422C65.343 70.7777 66.9701 69.8972 67.1832 68.2852C67.1958 68.1901 67.2092 68.095 67.2235 67.9999C68.5749 59.0157 75.9025 51.9885 85.029 51.0958L90.1126 46.1026C93.35 42.9228 91.5509 37.4113 87.0609 36.7539L75.987 35.1324C74.1954 34.8701 72.6484 33.7413 71.852 32.1151L66.9303 22.0664Z" fill="#FFCC33"/>
<path d="M66.9303 22.0664C64.9221 17.9661 59.0777 17.9662 57.0695 22.0664L52.1478 32.1151C51.3514 33.7413 49.8044 34.8701 48.0128 35.1324L36.9389 36.7539C32.4489 37.4113 30.6498 42.9228 33.8872 46.1026L41.9534 54.0254C43.2355 55.2847 43.8201 57.0917 43.5186 58.8633L41.6217 70.0076C40.8573 74.4981 45.5787 77.9125 49.6038 75.7801L59.4299 70.5747C60.7809 69.859 62.3561 69.7448 63.7787 70.2321C65.3302 70.7636 66.9745 69.8805 67.1885 68.2546C67.2117 68.0782 67.2377 67.9018 67.2667 67.7255C68.7247 58.8729 75.9957 51.9794 85.029 51.0958L90.1126 46.1026C93.35 42.9228 91.5509 37.4113 87.0609 36.7539L75.987 35.1324C74.1954 34.8701 72.6484 33.7413 71.852 32.1151L66.9303 22.0664Z" fill="#FFCC33"/>
<path fill-rule="evenodd" clip-rule="evenodd" d="M66.9303 22.0664C64.9221 17.9661 59.0777 17.9662 57.0695 22.0664L52.1478 32.1152C51.3514 33.7413 49.8044 34.8701 48.0128 35.1324L36.9389 36.7539C32.4489 37.4113 30.6498 42.9228 33.8872 46.1026L41.9534 54.0254C43.2355 55.2847 43.8201 57.0917 43.5186 58.8633L41.6217 70.0076C40.8573 74.4981 45.5787 77.9125 49.6038 75.7801L59.4299 70.5747C61.0374 69.7232 62.9624 69.7232 64.5699 70.5747L67 71.8621V70.9999C67 60.6193 74.9085 52.0858 85.029 51.0958L90.1126 46.1026C93.35 42.9228 91.5509 37.4113 87.0609 36.7539L75.987 35.1324C74.1954 34.8701 72.6484 33.7413 71.852 32.1152L66.9303 22.0664ZM68.2597 33.8746L63.338 23.8258C62.793 22.713 61.2068 22.713 60.6618 23.8258L55.7401 33.8746C54.3633 36.6855 51.6892 38.6368 48.5923 39.0902L37.5184 40.7117C36.2998 40.8901 35.8115 42.3859 36.6902 43.2489L44.7564 51.1717C46.9726 53.3485 47.9831 56.4721 47.4619 59.5345L47.4525 59.5894C52.6445 53.0531 67.8147 46.2889 81.5364 48.9195L87.3096 43.2489C88.1883 42.3859 87.7 40.8901 86.4814 40.7117L75.4075 39.0902C72.3106 38.6368 69.6364 36.6855 68.2597 33.8746Z" fill="#F9BE1A"/>
<path d="M87 87C95.8366 87 103 79.8366 103 71C103 62.1634 95.8366 55 87 55C78.1634 55 71 62.1634 71 71C71 79.8366 78.1634 87 87 87Z" fill="#557FF3"/>
<path d="M108.501 59C108.799 59 109.096 59.12 109.324 59.3539C109.778 59.8219 109.778 60.5837 109.324 61.0517L106.991 63.4512C106.536 63.9192 105.796 63.9192 105.341 63.4512C104.886 62.9833 104.886 62.2215 105.341 61.7535L107.673 59.3539C107.901 59.12 108.198 59 108.496 59H108.501Z" fill="#CCCCCC"/>
<path d="M107.335 69.7982H110.834C111.475 69.7982 112 70.3381 112 70.998C112 71.6579 111.475 72.1978 110.834 72.1978H107.335C106.694 72.1978 106.169 71.6579 106.169 70.998C106.169 70.3381 106.694 69.7982 107.335 69.7982Z" fill="#CCCCCC"/>
<path d="M105.353 78.5518C105.58 78.3178 105.878 78.1978 106.175 78.1978H106.181C106.478 78.1978 106.776 78.3178 107.003 78.5518L109.336 80.9513C109.79 81.4193 109.79 82.1811 109.336 82.6491C108.881 83.117 108.14 83.117 107.685 82.6491L105.353 80.2495C104.898 79.7815 104.898 79.0197 105.353 78.5518Z" fill="#CCCCCC"/>
<path fill-rule="evenodd" clip-rule="evenodd" d="M90 62.6667C90 62.2985 89.7015 62 89.3333 62H84.6667C84.2985 62 84 62.2985 84 62.6667V67.3333C84 67.7015 83.7015 68 83.3333 68H78.6667C78.2985 68 78 68.2985 78 68.6667V73.3333C78 73.7015 78.2985 74 78.6667 74H83.3333C83.7015 74 84 74.2985 84 74.6667V79.3333C84 79.7015 84.2985 80 84.6667 80H89.3333C89.7015 80 90 79.7015 90 79.3333V74.6667C90 74.2985 90.2985 74 90.6667 74H95.3333C95.7015 74 96 73.7015 96 73.3333V68.6667C96 68.2985 95.7015 68 95.3333 68H90.6667C90.2985 68 90 67.7015 90 67.3333V62.6667Z" fill="white"/>
</svg>

<svg fill="none" viewBox="0 0 128 96" xmlns="http://www.w3.org/2000/svg">
  <path fill="#888" d="m105.629 38.2 1.542-.4a.875.875 0 0 0 .629-.629l.4-1.543A.84.84 0 0 1 109 35c.4 0 .743.286.8.628l.4 1.543a.875.875 0 0 0 .629.629l1.542.4c.4.114.629.457.629.8 0 .4-.286.743-.629.8l-1.542.4a.875.875 0 0 0-.629.628l-.4 1.543a.84.84 0 0 1-.8.629c-.4 0-.743-.286-.8-.629l-.4-1.543a.875.875 0 0 0-.629-.628l-1.542-.4A.842.842 0 0 1 105 39c0-.4.286-.743.629-.8m-89.686-6.4 2.314-.6c.429-.086.857-.514.943-.943l.6-2.314c.171-.6.686-.943 1.2-.943.6 0 1.114.428 1.2.943l.6 2.314c.086.429.514.857.943.943l2.314.6c.6.171.943.686.943 1.2 0 .6-.429 1.114-.943 1.2l-2.314.6c-.429.086-.857.514-.943.943l-.6 2.314c-.171.6-.686.943-1.2.943-.6 0-1.114-.429-1.2-.943l-.6-2.314c-.086-.429-.514-.857-.943-.943l-2.314-.6c-.6-.172-.943-.686-.943-1.2 0-.6.429-1.114.943-1.2ZM.629 53.2l1.542-.4a.875.875 0 0 0 .629-.629l.4-1.542A.841.841 0 0 1 4 50c.4 0 .743.286.8.629l.4 1.542a.875.875 0 0 0 .629.629l1.542.4c.4.114.629.457.629.8 0 .4-.286.743-.629.8l-1.542.4a.875.875 0 0 0-.629.629l-.4 1.542A.841.841 0 0 1 4 58c-.4 0-.743-.286-.8-.629l-.4-1.542a.875.875 0 0 0-.629-.629L.63 54.8A.841.841 0 0 1 0 54c0-.4.286-.743.629-.8ZM126.5 52c-.825 0-1.5-.675-1.5-1.5s.675-1.5 1.5-1.5 1.5.675 1.5 1.5-.675 1.5-1.5 1.5M23 70c-1.1 0-2-.9-2-2s.9-2 2-2 2 .9 2 2-.9 2-2 2" opacity=".2"/>
  <path fill="#C18010" d="M61.07 22.067c.254-.519.569-.972.93-1.36V19h3.687c2.065-.115 4.186.907 5.243 3.067l4.922 10.048a5.49 5.49 0 0 0 4.135 3.017l11.074 1.622c4.49.657 6.289 6.169 3.052 9.349l-2.944 2.891c-1.309 1.286-3.071 1.956-4.905 2.022-.422.016-.843.041-1.264.083-8.772.87-15.876 7.409-17.6 15.901-.762 3.757-.88 1.938-3.97 3.575L60.74 72l-7.136 3.78c-.96.509-1.96.702-2.916.64H47v-1.763a5.398 5.398 0 0 1-1.378-4.65l1.897-11.144a5.49 5.49 0 0 0-1.566-4.837l-8.066-7.923c-3.237-3.18-1.438-8.692 3.052-9.349l11.074-1.621a5.49 5.49 0 0 0 4.135-3.018l4.921-10.049Z"/>
  <path fill="#FC3" d="M66.93 22.067c-2.008-4.1-7.852-4.1-9.86 0l-4.922 10.048a5.49 5.49 0 0 1-4.135 3.017l-11.074 1.622c-4.49.657-6.29 6.169-3.052 9.349l8.066 7.922a5.49 5.49 0 0 1 1.566 4.838l-1.897 11.145c-.765 4.49 3.957 7.905 7.982 5.772l9.826-5.205a5.49 5.49 0 0 1 4.378-.333c1.535.536 3.162-.345 3.375-1.957l.04-.285c1.352-8.984 8.68-16.011 17.806-16.904l5.084-4.993c3.237-3.18 1.438-8.692-3.052-9.349l-11.074-1.621a5.49 5.49 0 0 1-4.135-3.018L66.93 22.066Z"/>
  <path fill="#FC3" d="M66.93 22.067c-2.008-4.1-7.852-4.1-9.86 0l-4.922 10.048a5.49 5.49 0 0 1-4.135 3.017l-11.074 1.622c-4.49.657-6.29 6.169-3.052 9.349l8.066 7.922a5.49 5.49 0 0 1 1.566 4.838l-1.897 11.145c-.765 4.49 3.957 7.905 7.982 5.772l9.826-5.205a5.49 5.49 0 0 1 4.349-.343c1.551.532 3.196-.351 3.41-1.977.023-.177.049-.353.078-.53 1.458-8.852 8.729-15.745 17.762-16.63l5.084-4.992c3.237-3.18 1.438-8.692-3.052-9.349l-11.074-1.621a5.49 5.49 0 0 1-4.135-3.018L66.93 22.066Z"/>
  <path fill="#F9BE1A" fill-rule="evenodd" d="M66.93 22.067c-2.008-4.1-7.852-4.1-9.86 0l-4.922 10.048a5.49 5.49 0 0 1-4.135 3.017l-11.074 1.622c-4.49.657-6.29 6.169-3.052 9.349l8.066 7.922a5.49 5.49 0 0 1 1.566 4.838l-1.897 11.145c-.765 4.49 3.957 7.905 7.982 5.772l9.826-5.205a5.49 5.49 0 0 1 5.14 0L67 71.862V71c0-10.38 7.909-18.914 18.029-19.904l5.084-4.993c3.237-3.18 1.438-8.692-3.052-9.349l-11.074-1.621a5.49 5.49 0 0 1-4.135-3.018L66.93 22.066Zm1.33 11.808-4.922-10.05c-.545-1.112-2.131-1.112-2.676 0l-4.922 10.05a9.49 9.49 0 0 1-7.148 5.215l-11.074 1.622c-1.218.178-1.706 1.674-.828 2.537l8.066 7.923a9.49 9.49 0 0 1 2.706 8.363l-.01.055c5.193-6.537 20.363-13.3 34.084-10.67l5.774-5.67c.878-.864.39-2.36-.829-2.538L75.408 39.09a9.49 9.49 0 0 1-7.148-5.215" clip-rule="evenodd"/>
  <path fill="#557FF3" d="M87 87c8.837 0 16-7.163 16-16s-7.163-16-16-16-16 7.163-16 16 7.163 16 16 16"/>
  <path fill="#CCC" d="M108.501 59c.298 0 .595.12.823.354.454.468.454 1.23 0 1.698l-2.333 2.4a1.145 1.145 0 0 1-1.65 0 1.226 1.226 0 0 1 0-1.698l2.332-2.4c.228-.234.525-.354.823-.354h.005Zm-1.166 10.798h3.499c.641 0 1.166.54 1.166 1.2 0 .66-.525 1.2-1.166 1.2h-3.499c-.641 0-1.166-.54-1.166-1.2 0-.66.525-1.2 1.166-1.2m-1.982 8.754c.227-.234.525-.354.822-.354h.006c.297 0 .595.12.822.354l2.333 2.4c.454.467.454 1.23 0 1.697a1.146 1.146 0 0 1-1.651 0l-2.332-2.4a1.226 1.226 0 0 1 0-1.697Z"/>
  <path fill="#fff" fill-rule="evenodd" d="M90 62.667a.667.667 0 0 0-.667-.667h-4.666a.667.667 0 0 0-.667.667v4.666a.667.667 0 0 1-.667.667h-4.666a.667.667 0 0 0-.667.667v4.666c0 .368.299.667.667.667h4.666c.368 0 .667.299.667.667v4.666c0 .368.299.667.667.667h4.666a.667.667 0 0 0 .667-.667v-4.666c0-.368.299-.667.667-.667h4.666a.667.667 0 0 0 .667-.667v-4.666a.667.667 0 0 0-.667-.667h-4.666a.667.667 0 0 1-.667-.667z" clip-rule="evenodd"/>
</svg>
